www/assets/icons/mobile_off.svg

<svg width="24" height="24" viewBox="0 0 24 24" xmlns="http://www.w3.org/2000/svg" fill='currentColor'><path d="M3.03001 2.49L1.76001 3.76L5.27001 7.27V21C5.27001 22.1 6.17001 23 7.27001 23H17.27C18.29 23 19.12 22.23 19.25 21.25L20.97 22.97L22.24 21.7L3.03001 2.49ZM7.27001 19V9.27L17 19H7.27001ZM17.27 5V14.17L19.27 16.17V3C19.27 1.9 18.37 1 17.27 1H7.27001C6.42001 1 5.69001 1.54 5.40001 2.3L8.10001 5H17.27Z"/></svg>

<svg xmlns="http://www.w3.org/2000/svg" width="24" height="24" viewBox="0 0 24 24" fill='currentColor'><path d="M3.03 2.49 1.76 3.76l3.51 3.51V21c0 1.1.9 2 2 2h10c1.02 0 1.85-.77 1.98-1.75l1.72 1.72 1.27-1.27zM7.27 19V9.27L17 19zm10-14v9.17l2 2V3c0-1.1-.9-2-2-2h-10c-.85 0-1.58.54-1.87 1.3L8.1 5z"/></svg>
